X:18473
T:Waltz. CJF.126
M:3/8
L:1/16
Q:60
S: C.J.Fox MS, 1829/33, Beverley,E.Yorks.
R:Waltz
O:England
A:East Yorkshire
B:Kidson Coll.Mitchell Lib.M1805
N:Last bar of each section is g6 in MS. - PJH.
Z:P J Headford 200
K:G
dc|Bcdefg|d2d2 bg|d2d2 bg|d4dc|Bcdefg|a2a2a2|\
gfedef|g4:||:!d2|defgab|
c'4b2|a2agfe|d4bg|g2f2g2|^g2a2a2|gfedef|g4:||:!\
d2|d2b2g2|e2c'2a2|gfedef|
gabc'd'2|d2b2g2|e2c'2a2|gfedef|g4:||


